!!!OTL: Die wiedergefundene Schwester (Suedeli - Ballade) Es reiset aus ein Herre,
!!!ARE: Europa, Mitteleuropa, Deutschland / France, Lothringen, Forbach, Weiler
!!!YOR: 4, S. 3
!!    1928 gedruckt in Heidelberg
!!!SCT: Q0072B
!!!YEM: Copyright 1995, estate of Helmut Schaffrath.
**kern
*ICvox
*Ivox
*M3/4
*k[b-]
*F:
{4c
=1
2f
4f
=2
2g
4a
=3
2.b-
=4
2f}
{4cc
=5
2dd
4cc
=6
4b-
4g
4a
=7
4b-
4a
4g
=8
2g}
{8a
8b-
=9
2cc
8a
8g
=10
2f
4f
=11
4g
4f
4e
=12
2f}
{4f
=13
4b-
4cc
4dd
=14
4cc
4cc
8g
8a
=15
4b-
4a
4g
=16
2f}
{8a
8b-
=17
2cc
8a
8g
=18
2f
4f
=19
4g
4f
4e
=20
2f}
{4f
=21
4b-
4cc
4dd
=22
4cc
4cc
8g
8a
=23
4b-
4a
4g
=24
2f}
==
!!!AGN: Ballade, Entfuehrung, Adelige als Dienstmagd, Rueckkehr
!!!ONB: ESAC (Essen Associative Code) Database: BALLADE
!!!AMT: simple triple
!!!AIN: vox
!!!EED: Helmut Schaffrath
!!!EEV: 1.0
*-
